src/icons/solid/communication/chat-bubble-check.svg

<svg width="24" height="24" viewBox="0 0 24 24" fill="none" xmlns="http://www.w3.org/2000/svg">
<g clip-path="url(#clip0_5804_991)">
<path d="M17.0417 9.70833C18.202 9.70945 19.3456 9.98591 20.3783 10.515C20.4114 10.5353 20.4495 10.546 20.4883 10.546C20.5271 10.546 20.5652 10.5353 20.5983 10.515C20.6321 10.4955 20.66 10.4674 20.6794 10.4336C20.6987 10.3998 20.7087 10.3615 20.7083 10.3225V2.375C20.7083 2.01033 20.5635 1.66059 20.3056 1.40273C20.0477 1.14487 19.698 1 19.3333 1H2.375C2.01033 1 1.66059 1.14487 1.40273 1.40273C1.14487 1.66059 1 2.01033 1 2.375V13.4208C1.00115 13.5989 1.03785 13.775 1.10793 13.9388C1.17801 14.1025 1.28007 14.2506 1.40813 14.3744C1.53619 14.4982 1.68768 14.5952 1.8537 14.6597C2.01973 14.7242 2.19695 14.7549 2.375 14.75H3.75V17.9583C3.75002 18.0465 3.77499 18.1329 3.82203 18.2076C3.86907 18.2822 3.93626 18.3419 4.01583 18.38C4.09743 18.4159 4.18771 18.4272 4.27563 18.4125C4.36354 18.3979 4.44528 18.3579 4.51083 18.2975L8.5075 14.75H9.91916C9.96603 14.7487 10.0114 14.7331 10.0491 14.7052C10.0868 14.6773 10.115 14.6386 10.13 14.5942C10.6359 13.1653 11.5721 11.9284 12.8098 11.0534C14.0475 10.1785 15.5259 9.70858 17.0417 9.70833Z" fill="#3C3B44"/>
<path fill-rule="evenodd" clip-rule="evenodd" d="M17.0417 11.0833C15.8632 11.0833 14.7112 11.4328 13.7314 12.0875C12.7516 12.7422 11.9879 13.6728 11.5369 14.7615C11.0859 15.8503 10.9679 17.0483 11.1978 18.2041C11.4277 19.3599 11.9952 20.4216 12.8285 21.2548C13.6618 22.0881 14.7234 22.6556 15.8793 22.8855C17.0351 23.1154 18.2331 22.9974 19.3218 22.5464C20.4106 22.0955 21.3411 21.3318 21.9958 20.3519C22.6505 19.3721 23 18.2201 23 17.0417C22.9976 15.4622 22.369 13.948 21.2522 12.8312C20.1353 11.7143 18.6212 11.0858 17.0417 11.0833ZM13.9342 17.2067C13.9974 17.1418 14.0729 17.0903 14.1564 17.0551C14.2398 17.0199 14.3294 17.0017 14.42 17.0017C14.5106 17.0017 14.6002 17.0199 14.6836 17.0551C14.7671 17.0903 14.8426 17.1418 14.9058 17.2067L16.2808 18.5817L18.9392 15.025C18.9939 14.9528 19.0624 14.892 19.1406 14.8463C19.2189 14.8005 19.3054 14.7706 19.3952 14.7583C19.485 14.7459 19.5763 14.7514 19.664 14.7743C19.7517 14.7973 19.834 14.8373 19.9062 14.8921C19.9785 14.9469 20.0392 15.0153 20.085 15.0936C20.1307 15.1718 20.1607 15.2583 20.173 15.3481C20.1853 15.4379 20.1799 15.5293 20.1569 15.6169C20.1339 15.7046 20.0939 15.7869 20.0392 15.8592L17.3808 19.4067C17.2626 19.5641 17.1119 19.6943 16.939 19.7885C16.766 19.8827 16.5749 19.9386 16.3785 19.9525C16.182 19.9664 15.9849 19.938 15.8004 19.8691C15.616 19.8003 15.4484 19.6926 15.3092 19.5533L13.9342 18.1783C13.8693 18.1151 13.8178 18.0396 13.7826 17.9561C13.7474 17.8727 13.7292 17.7831 13.7292 17.6925C13.7292 17.6019 13.7474 17.5123 13.7826 17.4289C13.8178 17.3454 13.8693 17.2699 13.9342 17.2067Z" fill="#3C3B44"/>
</g>
<defs>
<clipPath id="clip0_5804_991">
<rect width="24" height="24" fill="white"/>
</clipPath>
</defs>
</svg>

<svg xmlns="http://www.w3.org/2000/svg" width="24" height="24" fill="none" viewBox="0 0 24 24"><g fill="currentColor" clip-path="url(#a)"><path d="M17.042 9.708a7.3 7.3 0 0 1 3.336.807.21.21 0 0 0 .22 0 .22.22 0 0 0 .11-.193V2.375A1.375 1.375 0 0 0 19.333 1H2.375A1.375 1.375 0 0 0 1 2.375v11.046a1.34 1.34 0 0 0 1.375 1.329H3.75v3.208a.47.47 0 0 0 .266.422.46.46 0 0 0 .495-.082l3.997-3.548h1.411a.23.23 0 0 0 .211-.156 7.33 7.33 0 0 1 6.912-4.886"/><path fill-rule="evenodd" d="M17.042 11.083A5.958 5.958 0 1 0 23 17.042a5.97 5.97 0 0 0-5.958-5.959m-3.108 6.124a.677.677 0 0 1 .972 0l1.375 1.375 2.658-3.557a.689.689 0 0 1 1.218.592.7.7 0 0 1-.118.242l-2.658 3.548a1.375 1.375 0 0 1-2.072.146l-1.375-1.375a.677.677 0 0 1 0-.971" clip-rule="evenodd"/></g><defs><clipPath id="a"><path fill="currentColor" d="M0 0h24v24H0z"/></clipPath></defs></svg>
